X:1
T:Freetown, 87.87 D
T:Freetown, 87.87 D
T:Anonymous
T:Public Domain Courtesy of the Cyber Hymnal™
C:Anonymous
Z:Public Domain
Z:Courtesy of the Cyber Hymnal™
%%score ( 1 2 ) ( 3 4 )
L:1/8
Q:1/4=103
M:4/4
K:Eb
V:1 treble 
V:2 treble 
V:3 bass 
V:4 bass 
V:1
 [EG]2 [EG]2 E[DF][EG][EA] | [EB]4 [EG]4 | [EG]2 [EG]2 E[EG][EB][EG] | [DF]6 z2 | %4
 [EG]2 [EG]2 E[DF][EG][EA] | [EB]4 [Ec]2 [Ec][Ec] | [EB]2 (EF) [EG]2 [DF]2 | E6 [FB]>[FB] | %8
 [Ee]2 [Ee]2 [Bd]2 [Ac]2 | [GB]4 [EG]2 E[DF] | [EG]2 [EG]2 [FB]2 ([GB]>[EG]) | [DF]6 [DB][DB] | %12
 [Ee]2 [Ge]2 [Ed]2 [Ec]2 | [EB]4 [EG]2 E[EF] | [EG]2 (BA) [EG]2 [DF]2 | E6 |] %16
V:2
 x4 E x3 | x8 | x4 E x3 | x8 | x4 E x3 | x8 | x2 E2 x4 | E6 x2 | x8 | x6 E x | x8 | x8 | x8 | %13
 x6 E x | x2 E2 x4 | E6 |] %16
V:3
 [E,B,]2 [E,B,]2 [G,B,][F,B,][E,B,][F,B,] | [G,B,]4 [E,B,]4 | %2
 [E,B,]2 [E,B,]2 [E,G,][E,B,][G,B,][E,B,] | [B,,B,]6 z2 | %4
 [E,B,]2 [E,B,]2 [G,B,][F,A,][E,B,][C,A,] | [B,,G,]4 [A,,A,]2 [A,,A,][A,,A,] | %6
 [G,,B,]2 (G,A,) [B,,B,]2 [B,,A,]2 | [E,G,]6 [D,A,]>[D,A,] | [E,G,]2 [E,G,]2 (A,B,) (CD) | %9
 [E,E]4 [E,B,]2 [G,B,][F,A,] | [E,B,]2 [E,B,]2 [E,B,]2 [E,B,]2 | [B,,B,]6 [B,,A,][B,,A,] | %12
 [E,G,]2 [E,B,]2 [A,,A,]2 [A,,A,]2 | [G,,B,]4 [C,C]2 [C,G,][C,A,] | %14
 [B,,B,]2 ([G,,B,][A,,C]) [B,,B,]2 [B,,A,]2 | [E,G,]6 |] %16
V:4
 x8 | x8 | x8 | x8 | x8 | x8 | x2 C,2 x4 | x8 | x4 E,2 E,2 | x8 | x8 | x8 | x8 | x8 | x8 | x6 |] %16

